X: 36812
T: Shetland Swamps, The
R: reel
M: 4/4
K: Amajor
|:"A"E2AB c3E|"F#m"F2EF "A"A3E|"A"E2Ac -c2ef|e2c=c "E"B2zE|
"A"E2AB c3E|"F#m"F2EF "A"A3E|EABc -c2ef|"A"c2B2 A2zE:|
|:"A"ee2A "F#m"ff2A|"A"eE[F2A2]-[F2A2]zA|"A"ee2A "F#m"ff2A|a2=cB -"Bm"B2 cd|
"A"eAAA ABcA|"F#m"F2EF "A"A3E|"E"EABc "A"-c2ef|c2B2 A3E:|

